img/Logo_eSmart.svg

<svg width="78" height="78" viewBox="0 0 78 78" fill="none" xmlns="http://www.w3.org/2000/svg">
<g clip-path="url(#clip0_77_4715)">
<path d="M58.7852 76.5988C45.3675 77.5674 31.9497 77.5674 18.5361 76.5988C9.74828 75.8846 1.44069 67.577 0.726503 58.7892C-0.242168 45.3714 -0.242168 31.9537 0.726503 18.536C1.44069 9.74405 9.74417 1.44057 18.5361 0.726381C31.9538 -0.24229 45.3716 -0.24229 58.7852 0.726381C67.5771 1.44057 75.8806 9.74816 76.5948 18.536C77.5635 31.9537 77.5635 45.3714 76.5948 58.7851C75.8806 67.5729 67.573 75.8805 58.7852 76.5947V76.5988Z" fill="url(#paint0_radial_77_4715)"/>
<path d="M33.1496 36.3068C33.6626 33.3598 35.6726 31.4388 38.3626 31.4388C41.0956 31.4388 42.9265 33.4028 43.3095 36.3068H33.1496ZM49.6295 38.6558C49.6295 32.1748 45.7446 26.2308 38.1036 26.2308C31.4416 26.2308 26.7886 31.6468 26.7886 38.1438C26.7383 39.7254 27.0134 41.3004 27.597 42.7713C28.1805 44.2421 29.06 45.5774 30.1809 46.6943C31.3019 47.8112 32.6403 48.6859 34.1132 49.2641C35.5862 49.8424 37.1622 50.1118 38.7436 50.0558C40.5274 50.1226 42.3021 49.7713 43.9259 49.0299C45.5498 48.2885 46.9777 47.1775 48.0956 45.7858L44.3795 42.4988C43.6669 43.2527 42.8056 43.8505 41.8502 44.2544C40.8947 44.6584 39.8658 44.8598 38.8286 44.8458C37.5045 44.9327 36.196 44.5206 35.1608 43.6906C34.1255 42.8606 33.4387 41.6731 33.2356 40.3618H49.5436C49.5866 39.7618 49.6285 39.1868 49.6285 38.6548" fill="white"/>
<path d="M38.2664 18.5138C43.2094 18.5094 47.9729 20.3659 51.6094 23.7138L52.5354 21.1688C48.7799 18.036 44.0975 16.2266 39.2112 16.0199C34.3248 15.8132 29.5064 17.2208 25.4997 20.0253C21.4929 22.8297 18.5208 26.8752 17.0422 31.537C15.5636 36.1988 15.6606 41.2177 17.3184 45.8188H20.0244C18.7802 42.8188 18.2954 39.5581 18.6129 36.3258C18.9304 33.0935 20.0405 29.9895 21.8447 27.2888C23.6489 24.5882 26.0916 22.3745 28.9561 20.8438C31.8207 19.3131 35.0186 18.5128 38.2664 18.5138Z" fill="white"/>
<path d="M59.2095 30.7048H56.5095C58.2318 34.8574 58.4849 39.4734 57.2272 43.7893C55.9695 48.1053 53.2762 51.8627 49.5928 54.4399C45.9094 57.0172 41.4566 58.2599 36.971 57.9626C32.4853 57.6653 28.2355 55.8457 24.9245 52.8048L23.9985 55.3498C27.754 58.4795 32.4349 60.2864 37.3191 60.4918C42.2034 60.6973 47.0195 59.2898 51.0245 56.4866C55.0295 53.6834 58.0008 49.6403 59.4801 44.9809C60.9593 40.3215 60.8642 35.3048 59.2095 30.7048Z" fill="white"/>
<path d="M59.2144 30.7049C57.8713 26.992 55.5664 23.7022 52.5354 21.1719L49.0654 30.7049H59.2144Z" fill="#D90010"/>
<path d="M17.3184 45.8188C18.6629 49.5316 20.9679 52.8214 23.9984 55.3528L27.4684 45.8188H17.3184Z" fill="#73AA1B"/>
</g>
<defs>
<radialGradient id="paint0_radial_77_4715" cx="0" cy="0" r="1" gradientUnits="userSpaceOnUse" gradientTransform="translate(57.8473 60.5357) rotate(48.7491) scale(38.6607 38.6607)">
<stop stop-color="#5C5C5A"/>
<stop offset="1"/>
</radialGradient>
<clipPath id="clip0_77_4715">
<rect width="77.3213" height="77.3213" fill="white"/>
</clipPath>
</defs>
</svg>

<svg xmlns="http://www.w3.org/2000/svg" width="78" height="78" fill="none"><g clip-path="url(#a)"><path fill="url(#b)" d="M58.785 76.599a279 279 0 0 1-40.249 0c-8.788-.714-17.095-9.022-17.81-17.81a279 279 0 0 1 0-40.253C1.442 9.744 9.745 1.441 18.537.726a279 279 0 0 1 40.25 0c8.791.715 17.095 9.022 17.809 17.81a279 279 0 0 1 0 40.25c-.714 8.787-9.022 17.094-17.81 17.809z"/><path fill="#fff" d="M33.15 36.307c.513-2.947 2.523-4.868 5.213-4.868 2.733 0 4.563 1.964 4.947 4.868zm16.48 2.349c0-6.481-3.885-12.425-11.526-12.425-6.662 0-11.315 5.416-11.315 11.913a11.55 11.55 0 0 0 11.955 11.912 11.45 11.45 0 0 0 9.352-4.27l-3.716-3.287a7.5 7.5 0 0 1-5.551 2.347 5.31 5.31 0 0 1-5.593-4.484h16.308c.043-.6.085-1.175.085-1.707"/><path fill="#fff" d="M38.266 18.514a19.67 19.67 0 0 1 13.343 5.2l.926-2.545a22.27 22.27 0 0 0-35.217 24.65h2.706a19.742 19.742 0 0 1 18.242-27.305M59.21 30.705h-2.7a19.739 19.739 0 0 1-31.585 22.1l-.927 2.545A22.268 22.268 0 0 0 59.21 30.705"/><path fill="#D90010" d="M59.214 30.705a22.3 22.3 0 0 0-6.679-9.533l-3.47 9.533z"/><path fill="#73AA1B" d="M17.318 45.819a22.33 22.33 0 0 0 6.68 9.534l3.47-9.534z"/></g><defs><radialGradient id="b" cx="0" cy="0" r="1" gradientTransform="rotate(48.749 -37.88 94.105)scale(38.6607)" gradientUnits="userSpaceOnUse"><stop stop-color="#5C5C5A"/><stop offset="1"/></radialGradient><clipPath id="a"><path fill="#fff" d="M0 0h77.321v77.321H0z"/></clipPath></defs></svg>
